logos/editorconfig.svg

<?xml version="1.0" encoding="UTF-8"?>
<svg width="256px" height="248px" viewBox="0 0 256 248" version="1.1" xmlns="http://www.w3.org/2000/svg" xmlns:xlink="http://www.w3.org/1999/xlink" preserveAspectRatio="xMidYMid">
		<g>
				<path d="M61.3423094,145.021111 C66.7474293,142.627169 71.2125285,136.642315 68.5099685,132.413018 C61.1073042,134.567565 61.459812,139.515045 61.3423094,145.021111 Z" fill="#E3E3F8"></path>
				<path d="M118.158527,158.746377 C123.222879,157.469608 128.084656,153.000917 125.349906,148.372629 C121.399712,150.527177 118.867536,153.479705 118.158527,158.746377 Z" fill="#E3E3F8"></path>
				<path d="M6.52104336,224.819169 C6.52104336,229.846447 7.79781229,235.272715 11.3089269,237.187868 C24.2362123,244.449492 69.5615094,238.783829 84.9625346,235.352513 C93.0221385,233.517158 99.5655793,227.532303 107.146395,224.260583 C124.223179,216.839363 136.591878,210.854509 150.237346,200.879752 C160.132305,193.618128 175.852523,173.189826 177.528282,160.980723 L164.04241,157.948396 C163.723218,171.673662 160.611094,174.785787 148.401991,177.977709 C140.182791,180.212055 124.143381,180.690843 115.764585,179.254478 C104.672655,177.419123 99.6453773,171.593864 94.6180997,164.970626 C84.8827366,152.04334 96.7726472,143.02616 81.371622,142.148381 C65.1726162,162.018097 36.6049113,147.734245 24.0766162,145.739293 C18.7301463,153.479705 6.20185113,203.752482 6.35993664,215.243402 C14.1018589,212.610066 18.9695404,215.482796 25.9119715,218.19593 C50.4897735,227.691899 29.0240958,236.070695 19.2089346,233.596956 C12.5058977,232.000994 10.4311482,227.612101 6.52104336,224.819169 Z" fill="#FDFDFD"></path>
				<path d="M38.6796608,110.14936 C48.6544181,112.064513 57.5120026,116.214012 65.9705968,120.443309 C79.7756608,127.305942 82.2494006,126.348365 83.5261696,135.924132 C83.6857657,137.67969 83.3665735,138.637266 88.3938511,140.233227 C96.8524453,142.866563 83.5261696,138.158478 106.188818,138.238276 C119.67469,138.318074 150.556539,143.744342 160.531296,150.048389 C164.680795,152.681725 163.882814,156.033243 177.927272,155.634253 C177.767676,139.116055 173.378783,114.458455 166.91514,99.2968236 C159.015133,80.9432702 148.561587,78.1503382 127.255505,71.2877051 C114.807008,67.2978022 78.2594977,62.908909 66.9281735,69.9311382 C56.3150317,76.554377 54.3200803,84.4543848 44.425121,98.3392469 C41.5523909,102.408948 40.5150162,105.521072 38.6796608,110.14936 Z" fill="#FDFDFD"></path>
				<path d="M126.537323,144.063534 C134.517129,147.335255 126.138333,168.48174 115.046403,163.374664 C111.45549,153.240311 119.993882,147.494851 122.308026,142.946361 C117.520142,142.228179 103.874674,140.073631 99.8049735,141.589794 C94.5383016,143.584746 93.3413307,154.836272 96.0544647,160.102944 C108.822154,185.159534 165.239381,179.813064 159.254527,160.342338 C156.860585,152.44233 154.626239,151.165561 146.566636,148.452427 C140.102993,146.29788 133.63935,144.063534 126.537323,144.063534 Z" fill="#FDFDFD"></path>
				<path d="M26.2311637,141.270602 C32.6150084,147.415053 47.058457,148.372629 56.3948298,148.851418 C57.5918006,136.482719 58.6291754,127.226144 68.5241346,127.944327 C73.3918162,134.567565 70.8382783,142.387775 65.7312026,147.415053 C74.4291909,147.335255 79.4564686,140.791814 78.1796997,131.295845 C70.8382783,126.029173 48.5746201,115.495829 37.4028919,113.979666 C34.2907676,117.331185 26.630154,135.684738 26.2311637,141.270602 Z" fill="#FDFDFD"></path>
				<path d="M11.2291288,220.27068 C16.4958006,219.791892 30.2210667,223.781794 31.3382395,228.250486 C22.7998472,229.28786 11.9473113,228.48988 11.2291288,220.27068 Z M6.52104336,224.819169 C10.4311482,227.612101 12.5058977,232.000994 19.2089346,233.596956 C29.0240958,236.070695 50.4897735,227.691899 25.9119715,218.19593 C18.9695404,215.482796 14.1018589,212.610066 6.35993664,215.243402 C6.20185113,203.752482 18.7301463,153.479705 24.0766162,145.739293 C36.6049113,147.734245 65.1726162,162.018097 81.371622,142.148381 C96.7726472,143.02616 84.8827366,152.04334 94.6180997,164.970626 C99.6453773,171.593864 104.672655,177.419123 115.764585,179.254478 C124.143381,180.690843 140.182791,180.212055 148.401991,177.977709 C160.611094,174.785787 163.723218,171.673662 164.04241,157.948396 L177.528282,160.980723 C175.852523,173.189826 160.132305,193.618128 150.237346,200.879752 C136.591878,210.854509 124.223179,216.839363 107.146395,224.260583 C99.5655793,227.532303 93.0221385,233.517158 84.9625346,235.352513 C69.5615094,238.783829 24.2362123,244.449492 11.3089269,237.187868 C7.79781229,235.272715 6.52104336,229.846447 6.52104336,224.819169 Z M118.158527,158.746377 C118.867536,153.479705 121.399712,150.527177 125.349906,148.372629 C128.084656,153.000917 123.222879,157.469608 118.158527,158.746377 Z M126.537323,144.063534 C133.63935,144.063534 140.102993,146.29788 146.566636,148.452427 C154.626239,151.165561 156.860585,152.44233 159.254527,160.342338 C165.239381,179.813064 108.822154,185.159534 96.0544647,160.102944 C93.3413307,154.836272 94.5383016,143.584746 99.8049735,141.589794 C103.874674,140.073631 117.520142,142.228179 122.308026,142.946361 C119.993882,147.494851 111.45549,153.240311 115.046403,163.374664 C126.138333,168.48174 134.517129,147.335255 126.537323,144.063534 Z M61.3423094,145.021111 C61.459812,139.515045 61.1073042,134.567565 68.5099685,132.413018 C71.2125285,136.642315 66.7474293,142.627169 61.3423094,145.021111 Z M26.2311637,141.270602 C26.630154,135.684738 34.2907676,117.331185 37.4028919,113.979666 C48.5746201,115.495829 70.8382783,126.029173 78.1796997,131.295845 C79.4564686,140.791814 74.4291909,147.335255 65.7312026,147.415053 C70.8382783,142.387775 73.3918162,134.567565 68.5241346,127.944327 C58.6291754,127.226144 57.5918006,136.482719 56.3948298,148.851418 C47.058457,148.372629 32.6150084,147.415053 26.2311637,141.270602 Z M18.2513579,134.886758 C15.2988298,126.747356 15.2988298,114.059464 27.8271249,113.02209 L21.4432803,130.817057 C19.767521,134.647363 19.767521,133.769585 18.2513579,134.886758 Z M38.6796608,110.14936 C40.5150162,105.521072 41.5523909,102.408948 44.425121,98.3392469 C54.3200803,84.4543848 56.3150317,76.554377 66.9281735,69.9311382 C78.2594977,62.908909 114.807008,67.2978022 127.255505,71.2877051 C148.561587,78.1503382 159.015133,80.9432702 166.91514,99.2968236 C173.378783,114.458455 177.767676,139.116055 177.927272,155.634253 C163.882814,156.033243 164.680795,152.681725 160.531296,150.048389 C150.556539,143.744342 119.67469,138.318074 106.188818,138.238276 C83.5261696,138.158478 96.8524453,142.866563 88.3938511,140.233227 C83.3665735,138.637266 83.6857657,137.67969 83.5261696,135.924132 C82.2494006,126.348365 79.7756608,127.305942 65.9705968,120.443309 C57.5120026,116.214012 48.6544181,112.064513 38.6796608,110.14936 Z M179.922224,106.239255 C178.406061,101.211977 181.198993,101.531169 186.066674,98.0998527 C188.859606,96.1049013 191.093952,94.0301517 194.525269,92.1149984 C207.372756,84.9331731 231.312173,83.7362022 241.526325,92.2745945 C245.675824,95.705911 252.458659,102.408948 251.421284,111.186734 C249.266737,128.662509 237.297028,138.238276 227.481867,146.218082 C217.507109,154.357484 200.909113,162.73628 183.752531,157.150416 C182.316166,153.639301 183.433339,131.375643 181.757579,123.156443 C180.241416,115.815022 181.039397,115.017041 185.268694,110.628148 C197.717191,97.7008624 224.688935,88.2846916 240.010162,99.3766217 C246.473805,104.164505 244.638449,105.99986 247.989968,109.670571 C252.139467,105.20188 244.399055,90.199845 215.83135,91.1574217 C196.440422,91.7958061 188.061626,106.957437 179.922224,106.239255 Z M63.7362511,60.8341595 C64.1352414,49.7422294 74.3493929,26.7603886 84.5635443,18.7805828 C96.9322434,9.20481583 109.859529,0.187635244 128.851467,10.9603731 C133.559552,13.593709 133.320158,14.950276 133.798946,21.4937168 C134.197937,27.7977634 133.63935,30.1119071 132.043389,35.2189828 C119.435296,75.9159925 108.901952,52.5351615 68.5241346,62.1907265 C70.0402977,48.9442488 81.5312181,37.1341362 87.9150628,30.9896857 C98.8473968,20.376544 106.747405,13.513911 123.185805,15.7482566 C127.734294,23.3290721 128.213082,28.1169556 122.707016,36.9745401 C115.365595,48.7846527 113.530239,48.0664702 114.647412,56.1260741 C120.392872,54.689709 122.14843,49.103845 124.781766,43.5179809 C140.821175,10.0027964 117.520142,5.93309544 103.23629,12.0775459 C93.660523,16.1472469 76.5837385,34.9795886 70.9978744,46.3109129 C69.8807016,48.5452585 68.6837307,51.4179886 67.646356,53.8917284 L63.7362511,60.8341595 Z M126.936313,62.5099187 C128.612072,52.5351615 138.507032,50.0614217 138.507032,19.3391692 C138.507032,6.09269155 122.228228,-5.79721913 100.922146,3.06036534 C82.6483909,10.5613828 79.8554589,16.306843 70.1200958,30.9896857 C60.9433191,44.8745479 61.2625113,60.115977 53.3625036,72.9634644 C51.0483599,76.634175 48.9736104,77.910944 46.4200725,81.5816547 C44.5847171,84.2947886 43.2281502,87.7261051 41.3927948,90.9180275 C37.6422861,97.062478 33.8119793,101.531169 30.7796531,108.872591 C21.2038861,109.111985 13.1442822,109.271581 12.1867055,119.16654 C10.9099366,132.73221 17.2937812,136.083728 17.2937812,141.190804 C17.2139832,146.69687 -5.12947314,202.236319 1.0947754,235.352513 C2.85033268,244.449492 8.83518705,244.52929 18.410954,245.646462 C41.4725929,248.439394 71.3968647,247.481818 92.0645618,239.18282 L129.569649,221.228257 C139.065618,215.881787 155.02523,205.747433 162.127257,198.326214 C167.154535,193.13934 169.787871,188.750447 174.096966,182.605996 C180.002022,173.987806 180.161618,174.147402 181.438387,162.417088 C189.258597,163.853453 203.861641,167.284769 208.729323,171.514066 C208.170737,177.020132 205.457603,174.386796 205.457603,179.334276 C208.569727,179.414074 213.756601,175.503969 215.03337,171.194874 C211.761649,166.406991 208.330333,167.204971 203.622247,163.374664 C207.372756,160.422136 214.155591,159.065569 219.342465,156.911022 C230.514193,152.282734 249.585929,138.238276 254.294014,125.470587 C258.044523,115.176637 255.251591,98.0200547 249.186939,91.3170178 C242.803094,84.2947886 227.960655,80.703876 215.83135,80.703876 C201.387902,80.703876 186.465665,91.0776236 174.815148,95.5463149 C170.346457,91.63621 170.027265,87.1675187 166.755544,82.8584236 C163.005036,77.7513479 138.58683,64.9836585 126.936313,62.5099187 Z" fill="#020202"></path>
				<path d="M179.922224,106.239255 C188.061626,106.957437 196.440422,91.7958061 215.83135,91.1574217 C244.399055,90.199845 252.139467,105.20188 247.989968,109.670571 C244.638449,105.99986 246.473805,104.164505 240.010162,99.3766217 C224.688935,88.2846916 197.717191,97.7008624 185.268694,110.628148 C181.039397,115.017041 180.241416,115.815022 181.757579,123.156443 C183.433339,131.375643 182.316166,153.639301 183.752531,157.150416 C200.909113,162.73628 217.507109,154.357484 227.481867,146.218082 C237.297028,138.238276 249.266737,128.662509 251.421284,111.186734 C252.458659,102.408948 245.675824,95.705911 241.526325,92.2745945 C231.312173,83.7362022 207.372756,84.9331731 194.525269,92.1149984 C191.093952,94.0301517 188.859606,96.1049013 186.066674,98.0998527 C181.198993,101.531169 178.406061,101.211977 179.922224,106.239255 Z" fill="#FDF2F2"></path>
				<path d="M63.7362511,60.8341595 L67.646356,53.8917284 C68.6837307,51.4179886 69.8807016,48.5452585 70.9978744,46.3109129 C76.5837385,34.9795886 93.660523,16.1472469 103.23629,12.0775459 C117.520142,5.93309544 140.821175,10.0027964 124.781766,43.5179809 C122.14843,49.103845 120.392872,54.689709 114.647412,56.1260741 C113.530239,48.0664702 115.365595,48.7846527 122.707016,36.9745401 C128.213082,28.1169556 127.734294,23.3290721 123.185805,15.7482566 C106.747405,13.513911 98.8473968,20.376544 87.9150628,30.9896857 C81.5312181,37.1341362 70.0402977,48.9442488 68.5241346,62.1907265 C108.901952,52.5351615 119.435296,75.9159925 132.043389,35.2189828 C133.63935,30.1119071 134.197937,27.7977634 133.798946,21.4937168 C133.320158,14.950276 133.559552,13.593709 128.851467,10.9603731 C109.859529,0.187635244 96.9322434,9.20481583 84.5635443,18.7805828 C74.3493929,26.7603886 64.1352414,49.7422294 63.7362511,60.8341595 Z" fill="#FEF3F3"></path>
				<path d="M18.2513579,134.886758 C19.767521,133.769585 19.767521,134.647363 21.4432803,130.817057 L27.8271249,113.02209 C15.2988298,114.059464 15.2988298,126.747356 18.2513579,134.886758 Z" fill="#EFEFEF"></path>
				<path d="M31.3382395,228.250486 C30.2210667,223.781794 16.4958006,219.791892 11.2291288,220.27068 C11.9473113,228.48988 22.7998472,229.28786 31.3382395,228.250486 Z" fill="#FAF1F1"></path>
		</g>
</svg>

<svg width="256" height="248" xmlns="http://www.w3.org/2000/svg" preserveAspectRatio="xMidYMid">
	<path d="M61.342 145.021c5.405-2.394 9.87-8.379 7.168-12.608-7.403 2.155-7.05 7.102-7.168 12.608Z" fill="#E3E3F8"/>
	<path d="M118.159 158.746c5.064-1.276 9.926-5.745 7.19-10.373-3.95 2.154-6.481 5.107-7.19 10.373Z" fill="#E3E3F8"/>
	<path d="M6.521 224.82c0 5.026 1.277 10.453 4.788 12.368 12.927 7.261 58.253 1.596 73.654-1.835 8.06-1.836 14.603-7.82 22.183-11.092 17.077-7.422 29.446-13.406 43.091-23.381 9.895-7.262 25.616-27.69 27.291-39.9l-13.486-3.032c-.319 13.726-3.43 16.838-15.64 20.03-8.22 2.234-24.259 2.713-32.637 1.276-11.092-1.835-16.12-7.66-21.147-14.283-9.735-12.928 2.155-21.945-13.246-22.823-16.2 19.87-44.767 5.586-57.295 3.591-5.347 7.74-17.875 58.013-17.717 69.504 7.742-2.633 12.61.24 19.552 2.953 24.578 9.496 3.112 17.875-6.703 15.401-6.703-1.596-8.778-5.985-12.688-8.778Z" fill="#FDFDFD"/>
	<path d="M38.68 110.15c9.974 1.915 18.832 6.064 27.29 10.293 13.806 6.863 16.28 5.905 17.556 15.481.16 1.756-.16 2.713 4.868 4.31 8.458 2.633-4.868-2.076 17.795-1.996 13.486.08 44.368 5.506 54.342 11.81 4.15 2.634 3.352 5.985 17.396 5.586-.16-16.518-4.548-41.176-11.012-56.337-7.9-18.354-18.353-21.147-39.66-28.01-12.448-3.99-48.996-8.378-60.327-1.356C56.315 76.554 54.32 84.454 44.425 98.34c-2.873 4.07-3.91 7.182-5.745 11.81Z" fill="#FDFDFD"/>
	<path d="M126.537 144.064c7.98 3.271-.399 24.418-11.49 19.31-3.592-10.134 4.947-15.88 7.261-20.428-4.788-.718-18.433-2.872-22.503-1.356-5.267 1.995-6.464 13.246-3.75 18.513 12.767 25.057 69.184 19.71 63.2.24-2.394-7.9-4.629-9.177-12.688-11.89-6.464-2.155-12.928-4.39-20.03-4.39Z" fill="#FDFDFD"/>
	<path d="M26.231 141.27c6.384 6.145 20.827 7.103 30.164 7.581 1.197-12.368 2.234-21.625 12.13-20.907 4.867 6.624 2.313 14.444-2.794 19.471 8.698-.08 13.725-6.623 12.449-16.12-7.342-5.266-29.605-15.8-40.777-17.315-3.112 3.351-10.773 21.705-11.172 27.29Z" fill="#FDFDFD"/>
	<path d="M11.23 220.27c5.266-.478 18.991 3.512 20.108 7.98-8.538 1.038-19.39.24-20.109-7.98Zm-4.709 4.55c3.91 2.792 5.985 7.181 12.688 8.777 9.815 2.474 31.28-5.905 6.703-15.401-6.942-2.713-11.81-5.586-19.552-2.953-.158-11.49 12.37-61.763 17.717-69.504 12.528 1.995 41.096 16.28 57.295-3.59 15.4.877 3.51 9.894 13.246 22.822 5.027 6.623 10.055 12.448 21.147 14.283 8.378 1.437 24.418.958 32.637-1.276 12.21-3.192 15.321-6.304 15.64-20.03l13.486 3.033c-1.675 12.209-17.396 32.637-27.29 39.899-13.646 9.975-26.015 15.96-43.092 23.38-7.58 3.272-14.124 9.257-22.183 11.093-15.401 3.43-60.727 9.096-73.654 1.835-3.511-1.915-4.788-7.342-4.788-12.369Zm111.638-66.074c.709-5.266 3.24-8.219 7.19-10.373 2.736 4.628-2.126 9.097-7.19 10.373Zm8.378-14.682c7.102 0 13.566 2.234 20.03 4.388 8.06 2.714 10.294 3.99 12.688 11.89 5.984 19.471-50.433 24.818-63.2-.24-2.714-5.266-1.517-16.517 3.75-18.512 4.07-1.516 17.715.638 22.503 1.356-2.314 4.549-10.853 10.294-7.262 20.429 11.092 5.107 19.471-16.04 11.491-19.311Zm-65.195.957c.118-5.506-.235-10.453 7.168-12.608 2.703 4.23-1.763 10.214-7.168 12.608Zm-35.11-3.75c.398-5.586 8.059-23.94 11.17-27.291 11.173 1.516 33.436 12.05 40.778 17.316 1.276 9.496-3.75 16.04-12.449 16.12 5.107-5.028 7.66-12.848 2.793-19.472-9.895-.718-10.932 8.539-12.13 20.907-9.336-.478-23.779-1.436-30.163-7.58Zm-7.98-6.384c-2.953-8.14-2.953-20.828 9.575-21.865l-6.384 17.795c-1.675 3.83-1.675 2.953-3.192 4.07Zm20.428-24.738c1.835-4.628 2.872-7.74 5.745-11.81 9.895-13.885 11.89-21.785 22.503-28.408 11.331-7.022 47.879-2.633 60.328 1.357 21.306 6.862 31.76 9.655 39.66 28.009 6.463 15.161 10.852 39.82 11.011 56.337-14.044.4-13.246-2.952-17.396-5.586-9.974-6.304-40.856-11.73-54.342-11.81-22.663-.08-9.337 4.629-17.795 1.995-5.027-1.596-4.708-2.553-4.868-4.309-1.277-9.576-3.75-8.618-17.555-15.48-8.459-4.23-17.317-8.38-27.291-10.295Zm141.242-3.91c-1.516-5.027 1.277-4.708 6.145-8.14 2.793-1.994 5.027-4.069 8.458-5.984 12.848-7.182 36.787-8.379 47.001.16 4.15 3.43 10.933 10.134 9.895 18.912-2.154 17.476-14.124 27.051-23.94 35.031-9.974 8.14-26.572 16.518-43.728 10.932-1.437-3.51-.32-25.774-1.995-33.994-1.517-7.341-.719-8.139 3.51-12.528 12.45-12.927 39.42-22.343 54.742-11.251 6.464 4.788 4.628 6.623 7.98 10.294 4.15-4.47-3.59-19.471-32.159-18.514-19.39.639-27.77 15.8-35.909 15.082ZM63.736 60.834c.4-11.092 10.613-34.074 20.828-42.053C96.932 9.205 109.86.188 128.85 10.96c4.709 2.633 4.47 3.99 4.948 10.533.399 6.304-.16 8.618-1.756 13.725-12.608 40.697-23.141 17.316-63.519 26.972C70.04 48.944 81.531 37.134 87.915 30.99c10.932-10.613 18.832-17.476 35.27-15.242 4.55 7.581 5.028 12.369-.478 21.227-7.341 11.81-9.177 11.091-8.06 19.151 5.746-1.436 7.501-7.022 10.135-12.608 16.04-33.515-7.262-37.585-21.546-31.44-9.575 4.07-26.652 22.902-32.238 34.233-1.117 2.234-2.314 5.107-3.352 7.58l-3.91 6.943Zm63.2 1.676c1.676-9.975 11.571-12.449 11.571-43.17 0-13.247-16.279-25.137-37.585-16.28-18.274 7.501-21.067 13.247-30.802 27.93-9.177 13.885-8.857 29.126-16.757 41.973-2.315 3.671-4.39 4.948-6.943 8.619-1.835 2.713-3.192 6.144-5.027 9.336-3.75 6.144-7.581 10.613-10.613 17.955-9.576.239-17.636.399-18.593 10.294-1.277 13.565 5.107 16.917 5.107 22.024-.08 5.506-22.423 61.045-16.2 94.162 1.756 9.096 7.741 9.176 17.317 10.293 23.062 2.793 52.986 1.836 73.654-6.463l37.505-17.955c9.496-5.346 25.455-15.48 32.557-22.902 5.028-5.187 7.66-9.576 11.97-15.72 5.905-8.618 6.065-8.459 7.341-20.189 7.82 1.436 22.424 4.868 27.291 9.097-.558 5.506-3.271 2.873-3.271 7.82 3.112.08 8.299-3.83 9.575-8.14-3.271-4.787-6.703-3.989-11.41-7.82 3.75-2.952 10.533-4.308 15.72-6.463 11.171-4.628 30.243-18.673 34.951-31.44 3.75-10.294.958-27.45-5.107-34.154-6.384-7.022-21.226-10.613-33.356-10.613-14.443 0-29.365 10.374-41.016 14.842-4.469-3.91-4.788-8.378-8.06-12.688-3.75-5.107-28.168-17.874-39.819-20.348Z" fill="#020202"/>
	<path d="M179.922 106.24c8.14.717 16.518-14.444 35.91-15.083 28.567-.957 36.307 14.045 32.158 18.514-3.352-3.671-1.516-5.506-7.98-10.294-15.321-11.092-42.293-1.676-54.741 11.251-4.23 4.389-5.028 5.187-3.511 12.528 1.675 8.22.558 30.483 1.995 33.994 17.156 5.586 33.754-2.793 43.729-10.932 9.815-7.98 21.785-17.555 23.94-35.031 1.037-8.778-5.746-15.481-9.896-18.912-10.214-8.539-34.153-7.342-47-.16-3.432 1.915-5.666 3.99-8.46 5.985-4.867 3.431-7.66 3.112-6.144 8.14Z" fill="#FDF2F2"/>
	<path d="m63.736 60.834 3.91-6.942c1.038-2.474 2.235-5.347 3.352-7.581 5.586-11.331 22.663-30.164 32.238-34.233 14.284-6.145 37.585-2.075 21.546 31.44-2.634 5.586-4.39 11.172-10.135 12.608-1.117-8.06.719-7.341 8.06-19.151 5.506-8.858 5.027-13.646.479-21.227-16.439-2.234-24.339 4.629-35.27 15.242-6.385 6.144-17.876 17.954-19.392 31.2 40.378-9.655 50.911 13.726 63.52-26.971 1.595-5.107 2.154-7.421 1.755-13.725-.479-6.544-.24-7.9-4.948-10.534C109.86.188 96.932 9.205 84.564 18.78c-10.215 7.98-20.429 30.962-20.828 42.054Z" fill="#FEF3F3"/>
	<path d="M18.251 134.887c1.517-1.117 1.517-.24 3.192-4.07l6.384-17.795C15.3 114.06 15.3 126.747 18.251 134.887Z" fill="#EFEFEF"/>
	<path d="M31.338 228.25c-1.117-4.468-14.842-8.458-20.109-7.98.718 8.22 11.57 9.018 20.11 7.98Z" fill="#FAF1F1"/>
</svg>
